usr/share/icons/biglinux-icons-material/22/actions/irc-voice.svg

<svg xmlns="http://www.w3.org/2000/svg" viewBox="0 0 22 22">
  <defs id="defs3051">
    <style type="text/css" id="current-color-scheme">
      .ColorScheme-Text {
        color:#dedede;
      }
      </style>
  </defs>
 <path 
     style="fill:currentColor;fill-opacity:1;stroke:none" 
     d="M 15 4 L 3 7.4179688 L 3 8.4609375 L 3 13 L 3 13.582031 L 4 13.867188 L 4 16 L 4 16.300781 L 10 18 L 10 17 L 10 15.576172 L 15 17 L 15 15.957031 L 15 5.0429688 L 15 4 z M 19.029297 4.4277344 L 18.257812 5.0585938 C 19.395072 6.8308338 19.99974 8.8922969 20 10.998047 C 19.996 13.101927 19.38858 15.160517 18.25 16.929688 L 19.033203 17.572266 C 20.314753 15.619026 20.99831 13.334187 21 10.998047 C 20.996 8.6628469 20.311497 6.3794244 19.029297 4.4277344 z M 14 5.328125 L 14 15.671875 L 4 12.824219 L 4 8.1757812 L 14 5.328125 z M 16.689453 6.34375 L 15.908203 6.9824219 C 16.619993 8.2012119 16.99667 9.5866269 17 10.998047 C 16.998 12.409947 16.621596 13.796065 15.910156 15.015625 L 16.691406 15.65625 C 17.544636 14.25208 17.99719 12.641117 18 10.998047 C 17.996 9.3561169 17.542683 7.74659 16.689453 6.34375 z M 2 7.703125 L 1 7.9882812 L 1 8 L 1 9 L 1 12 L 1 13 L 1 13.011719 L 2 13.296875 L 2 13 L 2 12.253906 L 2 8.7460938 L 2 8 L 2 7.703125 z M 5 14.152344 L 9 15.291016 L 9 16.716797 L 5 15.583984 L 5 14.152344 z "
     class="ColorScheme-Text"
     />
</svg>

<svg xmlns="http://www.w3.org/2000/svg" viewBox="0 0 22 22"><path d="M15 4 3 7.418v6.164l1 .285V16.3l6 1.7v-2.424L15 17V4zm4.03.428-.772.63A11 11 0 0 1 20 10.999a11 11 0 0 1-1.75 5.932l.783.642A12 12 0 0 0 21 10.998a12.003 12.003 0 0 0-1.97-6.57zm-5.03.9v10.344L4 12.824V8.176l10-2.848zm2.69 1.016-.782.638A8 8 0 0 1 17 10.998a7.996 7.996 0 0 1-1.09 4.018l.781.64A9 9 0 0 0 18 10.998a8.999 8.999 0 0 0-1.31-4.654zM2 7.704l-1 .284v5.024l1 .285V7.703zm3 6.448 4 1.139v1.426l-4-1.133v-1.432z" style="fill:currentColor;fill-opacity:1;stroke:none;color:#dedede"/></svg>
